common/src/main/resources/glyphs/plugins/resharper/CoverageTree/Struct.svg

<svg xmlns="http://www.w3.org/2000/svg" width="16" height="16" data-big="true" viewBox="0 0 24 24"><path fill="#9575CD" d="M18 15h-2v2h2m0-6h-2v2h2m2 6h-8v-2h2v-2h-2v-2h2v-2h-2V9h8M10 7H8V5h2m0 6H8V9h2m0 6H8v-2h2m0 6H8v-2h2M6 7H4V5h2m0 6H4V9h2m0 6H4v-2h2m0 6H4v-2h2m6-10V3H2v18h20V7z"/></svg>

<!--
  - The MIT License (MIT)
  -
  - Copyright (c) 2015-2024 Elior "Mallowigi" Boukhobza
  -
  - Permission is hereby granted, free of charge, to any person obtaining a copy
  - of this software and associated documentation files (the "Software"), to deal
  - in the Software without restriction, including without limitation the rights
  - to use, copy, modify, merge, publish, distribute, sublicense, and/or sell
  - copies of the Software, and to permit persons to whom the Software is
  - furnished to do so, subject to the following conditions:
  -
  - The above copyright notice and this permission notice shall be included in all
  - copies or substantial portions of the Software.
  -
  - THE SOFTWARE IS PROVIDED "AS IS", WITHOUT WARRANTY OF ANY KIND, EXPRESS OR
  - IMPLIED, INCLUDING BUT NOT LIMITED TO THE WARRANTIES OF MERCHANTABILITY,
  - FITNESS FOR A PARTICULAR PURPOSE AND NONINFRINGEMENT. IN NO EVENT SHALL THE
  - AUTHORS OR COPYRIGHT HOLDERS BE LIABLE FOR ANY CLAIM, DAMAGES OR OTHER
  - LIABILITY, WHETHER IN AN ACTION OF CONTRACT, TORT OR OTHERWISE, ARISING FROM,
  - OUT OF OR IN CONNECTION WITH THE SOFTWARE OR THE USE OR OTHER DEALINGS IN THE
  - SOFTWARE.
  -->


<svg data-big="true" xmlns="http://www.w3.org/2000/svg" version="1.1" width="16px" height="16px" viewBox="0 0 24 24">
  <path fill="#9575CD"
        d="M18,15H16V17H18M18,11H16V13H18M20,19H12V17H14V15H12V13H14V11H12V9H20M10,7H8V5H10M10,11H8V9H10M10,15H8V13H10M10,19H8V17H10M6,7H4V5H6M6,11H4V9H6M6,15H4V13H6M6,19H4V17H6M12,7V3H2V21H22V7H12Z"/>
</svg>
